images/class_icons/brute.svg

<svg height="400" viewBox="0 0 400 400" width="400" xmlns="http://www.w3.org/2000/svg"><path d="m199.451 23.616c-.526.356-.936 2.809-5.688 34.026-23.4 153.707-34.704 252.34-33.077 288.613.288 6.426.241 6.285 2.348 7.009 4.237 1.456 5.628 2.509 14.796 11.196 7.495 7.101 8.977 8.297 12.552 10.133 3.645 1.871 4.888 2.177 9.178 2.261 8.436.164 11.762-1.568 22.293-11.609 9.115-8.69 11.613-10.574 15.921-12.009 1.717-.572 1.727-.598 2.095-5.369 2.494-32.3-10.785-146.768-35.717-307.894-2.258-14.595-2.527-15.995-3.135-16.32-.298-.16-1.348-.184-1.566-.037m-193.687 59.3c-.516.553-.506.738.205 4.098 2.031 9.589 2.322 19.721 1.29 44.864-.145 3.547-.341 8.354-.435 10.682-.564 14.019-.155 31.541.912 39.029 2.496 17.512 10.12 27.748 30.706 41.226 1.064.697 5.925 3.642 10.802 6.545 19.42 11.559 19.167 11.405 23.783 14.437 26.247 17.241 30.866 31.285 28.616 87.006-.853 21.143-.851 34.791.006 36.1 1.018 1.554 8.315 2.247 13.083 1.242 3.413-.719 3.667-.875 4.703-2.89 2.543-4.945 9.191-8.384 23.628-12.223 1.227-.326 1.378-.399 1.378-.667 0-4.743 3.324-42.895 6.515-74.77 1.901-18.997 2.13-21.639 2.014-23.245-.493-6.824-3.389-17.172-6.578-23.505-3.298-6.549-12.432-15.037-24.323-22.6-9.514-6.051-18.808-10.71-39.906-20.002-33.625-14.811-37.561-17.432-41.056-27.343-1.078-3.057-1.739-5.401-5.293-18.779-5.311-19.989-8.112-28.186-12.98-37.987-4.103-8.264-8.042-13.957-13.697-19.801-1.941-2.005-2.574-2.271-3.373-1.417m387.156.1c-4.371 3.456-10.831 12.466-15.09 21.048-5.167 10.412-7.715 17.89-13.371 39.235-5.56 20.985-6.395 23.014-11.123 27.039-5.125 4.363-10.219 7.007-32.61 16.923-28.49 12.616-36.652 16.858-48.039 24.964-15.447 10.995-20.588 18.69-24.173 36.178-1.294 6.312-1.337 5.278 1.277 30.67 2.287 22.221 3.948 40.747 5.498 61.32.511 6.789.955 12.369.986 12.4s.967.26 2.08.51c12.152 2.723 20.447 7.195 23.065 12.434.7 1.4.915 1.537 3.516 2.245l1.863.507 4.031.001c2.666.001 4.26-.053 4.709-.159 1.376-.326 3.02-1.006 3.434-1.419l.41-.41-.058-15.062c-.05-12.836-.1-15.915-.342-20.839-2.028-41.225 1.206-60.881 11.998-72.929 6.512-7.269 13.123-12.136 30.437-22.404 18.288-10.847 22.668-13.594 28.888-18.117 10.825-7.874 17.816-16.842 20.602-26.43 3.053-10.507 3.722-23.459 2.705-52.394-.254-7.256-.703-18.937-.798-20.772-.53-10.303.276-23.585 1.886-31.092.576-2.682.594-3.303.108-3.685-.551-.434-1.131-.361-1.889.238" fill-rule="evenodd"/></svg>

<svg id="svg" xmlns="http://www.w3.org/2000/svg" xmlns:xlink="http://www.w3.org/1999/xlink" width="400" height="400" viewBox="0, 0, 400,400"><g id="svgg"><path id="path0" d="M199.451 23.616 C 198.925 23.972,198.515 26.425,193.763 57.642 C 170.363 211.349,159.059 309.982,160.686 346.255 C 160.974 352.681,160.927 352.540,163.034 353.264 C 167.271 354.720,168.662 355.773,177.830 364.460 C 185.325 371.561,186.807 372.757,190.382 374.593 C 194.027 376.464,195.270 376.770,199.560 376.854 C 207.996 377.018,211.322 375.286,221.853 365.245 C 230.968 356.555,233.466 354.671,237.774 353.236 C 239.491 352.664,239.501 352.638,239.869 347.867 C 242.363 315.567,229.084 201.099,204.152 39.973 C 201.894 25.378,201.625 23.978,201.017 23.653 C 200.719 23.493,199.669 23.469,199.451 23.616 M5.764 82.916 C 5.248 83.469,5.258 83.654,5.969 87.014 C 8.000 96.603,8.291 106.735,7.259 131.878 C 7.114 135.425,6.918 140.232,6.824 142.560 C 6.260 156.579,6.669 174.101,7.736 181.589 C 10.232 199.101,17.856 209.337,38.442 222.815 C 39.506 223.512,44.367 226.457,49.244 229.360 C 68.664 240.919,68.411 240.765,73.027 243.797 C 99.274 261.038,103.893 275.082,101.643 330.803 C 100.790 351.946,100.792 365.594,101.649 366.903 C 102.667 368.457,109.964 369.150,114.732 368.145 C 118.145 367.426,118.399 367.270,119.435 365.255 C 121.978 360.310,128.626 356.871,143.063 353.032 C 144.290 352.706,144.441 352.633,144.441 352.365 C 144.441 347.622,147.765 309.470,150.956 277.595 C 152.857 258.598,153.086 255.956,152.970 254.350 C 152.477 247.526,149.581 237.178,146.392 230.845 C 143.094 224.296,133.960 215.808,122.069 208.245 C 112.555 202.194,103.261 197.535,82.163 188.243 C 48.538 173.432,44.602 170.811,41.107 160.900 C 40.029 157.843,39.368 155.499,35.814 142.121 C 30.503 122.132,27.702 113.935,22.834 104.134 C 18.731 95.870,14.792 90.177,9.137 84.333 C 7.196 82.328,6.563 82.062,5.764 82.916 M392.920 83.016 C 388.549 86.472,382.089 95.482,377.830 104.064 C 372.663 114.476,370.115 121.954,364.459 143.299 C 358.899 164.284,358.064 166.313,353.336 170.338 C 348.211 174.701,343.117 177.345,320.726 187.261 C 292.236 199.877,284.074 204.119,272.687 212.225 C 257.240 223.220,252.099 230.915,248.514 248.403 C 247.220 254.715,247.177 253.681,249.791 279.073 C 252.078 301.294,253.739 319.820,255.289 340.393 C 255.800 347.182,256.244 352.762,256.275 352.793 C 256.306 352.824,257.242 353.053,258.355 353.303 C 270.507 356.026,278.802 360.498,281.420 365.737 C 282.120 367.137,282.335 367.274,284.936 367.982 L 286.799 368.489 290.830 368.490 C 293.496 368.491,295.090 368.437,295.539 368.331 C 296.915 368.005,298.559 367.325,298.973 366.912 L 299.383 366.502 299.325 351.440 C 299.275 338.604,299.225 335.525,298.983 330.601 C 296.955 289.376,300.189 269.720,310.981 257.672 C 317.493 250.403,324.104 245.536,341.418 235.268 C 359.706 224.421,364.086 221.674,370.306 217.151 C 381.131 209.277,388.122 200.309,390.908 190.721 C 393.961 180.214,394.630 167.262,393.613 138.327 C 393.359 131.071,392.910 119.390,392.815 117.555 C 392.285 107.252,393.091 93.970,394.701 86.463 C 395.277 83.781,395.295 83.160,394.809 82.778 C 394.258 82.344,393.678 82.417,392.920 83.016 " stroke="none" fill="#000000" fill-rule="evenodd"></path></g></svg>
